dist/svgs/unicons/line/arrows-shrink-h.svg

<svg xmlns="http://www.w3.org/2000/svg" viewBox="0 0 24 24"><path d="M17.71 11.29l-2.5-2.5a1 1 0 00-1.42 1.42l.8.79H9.41l.8-.79a1 1 0 00-1.42-1.42l-2.5 2.5a1 1 0 00-.21.33 1 1 0 000 .76 1 1 0 00.21.33l2.5 2.5a1 1 0 001.42 0 1 1 0 000-1.42l-.8-.79h5.18l-.8.79a1 1 0 000 1.42 1 1 0 001.42 0l2.5-2.5a1 1 0 00.21-.33 1 1 0 000-.76 1 1 0 00-.21-.33zM3 6a1 1 0 00-1 1v10a1 1 0 002 0V7a1 1 0 00-1-1zm18 0a1 1 0 00-1 1v10a1 1 0 002 0V7a1 1 0 00-1-1z"/></svg>

<svg xmlns="http://www.w3.org/2000/svg" viewBox="0 0 24 24"><path d="M17.71,11.29l-2.5-2.5a1,1,0,0,0-1.42,1.42l.8.79H9.41l.8-.79A1,1,0,0,0,8.79,8.79l-2.5,2.5a1,1,0,0,0-.21.33,1,1,0,0,0,0,.76,1,1,0,0,0,.21.33l2.5,2.5a1,1,0,0,0,1.42,0,1,1,0,0,0,0-1.42L9.41,13h5.18l-.8.79a1,1,0,0,0,0,1.42,1,1,0,0,0,1.42,0l2.5-2.5a1,1,0,0,0,.21-.33,1,1,0,0,0,0-.76A1,1,0,0,0,17.71,11.29ZM3,6A1,1,0,0,0,2,7V17a1,1,0,0,0,2,0V7A1,1,0,0,0,3,6ZM21,6a1,1,0,0,0-1,1V17a1,1,0,0,0,2,0V7A1,1,0,0,0,21,6Z"/></svg>
